X: 4318
T: FAIRY WAND. (Maritana.)
%R: march
B: James Kerr "Merry Melodies" v.4 p.33 #318
Z: 2016 John Chambers <jc:trillian.mit.edu>
M: C
L: 1/4
K: G
[|\
B3 B | d3 c | ^GA Bc | e2 d2 |\
g3 B | c3 d | f e2 c | A3 ^A |\
B3 B | d3 c | ^GA Bc | e2 d2 |\
g3 ^d | f3 e | d3 c | (^A2 B)d |\
g3 ^d | f3 e | d e2 d | G3 z |]

%%sep 1 1 500
%%sep 1 1 500

